X: 19
T: Wsiadaj z dobrym sercem, o królu cnotliwy,
C: Mikołaj Gomółka
%%abc-version 2.0
%%abcx-abcm2ps-target-version 5.9.1 (29 Sep 2008)
%%abc-creator hum2abc beta
%%abcx-conversion-date 2021/10/04 07:59:08
%%abc-edited-by Leszek Kubiak
%%abcx-initial-encoding-date data 2020-02-05
%%humdrum-veritas 941139905
%%humdrum-veritas-data 3470422823
%%linebreak <none>
%%barnumbers 0
L: 1/4
M: C|
N: Derived from pl-wn--sd-xvi-qu-273--020_gomolka-mikolaj--wsiadaj-z-dobrym-sercem-o-krolu-cnotliwy.krn
%%staves [1 2 3 4]
V: 1
V: 2 clef=alto
V: 3 clef=alto
V: 4 clef=bass
K: C
[V:1] G4G4 [|] 
[V:2] D4E4 [|] 
[V:3] B,4C4 [|] 
[V:4] G,4C,4 [|] 
[V:1] A2A2G2G2 [|] 
[V:2] F2>E2D2D2 [|] 
[V:3] A,4B,2B,2 [|] 
[V:4] F,2F,2G,2G,2 [|] 
[V:1] G4A4 [|] 
[V:2] E4C3D [|] 
[V:3] C4A,4 [|] 
[V:4] C,4F,4 [|] 
[V:1] G2G4F2 [|] 
[V:2] E2E2D3C [|] 
[V:3] B,2CB,A,G,A,2 [|] 
[V:4] E,2C,2D,4 [|] 
[V:1] G4 [|] 
[V:2] B,4 [|] 
[V:3] G,4 [|] 
[V:4] G,,4 [|] 
[V:1] B4 [I:setbarnb 6][|] 
[V:2] G4 [|] 
[V:3] D4 [|] 
[V:4] G,4 [|] 
[V:1] c2c2B6 [|] 
[V:2] G2G2G6 [|] 
[V:3] E2E2D6 [|] 
[V:4] C,2C,2G,,6 [|] 
[V:1] A2A2A2 [|] 
[V:2] F2F2D2 [|] 
[V:3] D2D2F2 [|] 
[V:4] D,2D,2D,2 [|] 
[V:1] Bcd2d2^c2 [|] 
[V:2] D2D2A3G [|] 
[V:3] GFEDE2E2 [|] 
[V:4] G,2B,2A,2A,2 [|] 
[V:1] d4A2A2 [|] 
[V:2] ^F4^F4 [|] 
[V:3] D4D4 [|] 
[V:4] D,4D,4 [|] 
[V:1] B2B2A4 [|] 
[V:2] G2G2E4 [|] 
[V:3] D2E2^C4 [|] 
[V:4] G,2E,2A,4 [|] 
[V:1] A2c2B2A3 [|] 
[V:2] F2E2D2E2 [|] 
[V:3] D2C2D3C [|] 
[V:4] D,2A,,2B,,2C,2 [|] 
[V:1] GG4F2 [|] 
[V:2] D2C2D3C [|] 
[V:3] B,2A,G,A,4 [|] 
[V:4] D,2E,2D,4 [|] 
[V:1] G32 [|] 
[V:2] B,32 [|] 
[V:3] G,32 [|] 
[V:4] !fermata!G,,32 [|] 


